Newaita/actions/24/player-time.svg

<svg height="24" viewBox="0 0 24 24" width="24" xmlns="http://www.w3.org/2000/svg"><g fill="#424242"><path d="m11.90625 2.171875c-5.496094 0-9.921875 4.425781-9.921875 9.921875 0 5.5 4.425781 9.925781 9.921875 9.925781 5.5 0 9.925781-4.425781 9.925781-9.925781 0-5.496094-4.425781-9.921875-9.925781-9.921875zm0 1.984375c4.398438 0 7.9375 3.539062 7.9375 7.9375s-3.539062 7.9375-7.9375 7.9375-7.9375-3.539062-7.9375-7.9375 3.539062-7.9375 7.9375-7.9375zm0 0"/><path d="m4.960938 2.171875c-1.648438 0-2.976563 1.328125-2.976563 2.976563 0 1.304687.832031 2.410156 1.996094 2.8125.847656-1.621094 2.171875-2.945313 3.792969-3.792969-.402344-1.164063-1.507813-1.996094-2.8125-1.996094zm0 0"/><path d="m18.851562 2.171875c-1.304687 0-2.40625.832031-2.8125 1.996094 1.621094.847656 2.949219 2.171875 3.792969 3.792969 1.164063-.402344 2-1.507813 2-2.8125 0-1.648438-1.328125-2.976563-2.980469-2.976563zm0 0"/><path d="m9.921875 8.621094c-.292969-.011719-.535156.222656-.535156.515625v5.953125c0 .398437.4375.648437.78125.441406l4.960937-2.976562c.332032-.199219.332032-.683594 0-.882813l-4.960937-2.976563c-.074219-.042968-.160157-.070312-.246094-.074218zm0 0"/></g></svg>

<svg xmlns="http://www.w3.org/2000/svg" xmlns:xlink="http://www.w3.org/1999/xlink" width="24px" height="24px" viewBox="0 0 24 24" version="1.1">
<g id="surface1">
     <defs>
  <style id="current-color-scheme" type="text/css">
   .ColorScheme-Text { color:#424242; } .ColorScheme-Highlight { color:#eeeeee; }
  </style>
 </defs>
<path style="fill:currentColor" class="ColorScheme-Text" d="M 11.90625 2.171875 C 6.410156 2.171875 1.984375 6.597656 1.984375 12.09375 C 1.984375 17.59375 6.410156 22.019531 11.90625 22.019531 C 17.40625 22.019531 21.832031 17.59375 21.832031 12.09375 C 21.832031 6.597656 17.40625 2.171875 11.90625 2.171875 Z M 11.90625 4.15625 C 16.304688 4.15625 19.84375 7.695312 19.84375 12.09375 C 19.84375 16.492188 16.304688 20.03125 11.90625 20.03125 C 7.507812 20.03125 3.96875 16.492188 3.96875 12.09375 C 3.96875 7.695312 7.507812 4.15625 11.90625 4.15625 Z M 11.90625 4.15625 "/>
     <defs>
  <style id="current-color-scheme" type="text/css">
   .ColorScheme-Text { color:#424242; } .ColorScheme-Highlight { color:#eeeeee; }
  </style>
 </defs>
<path style="fill:currentColor" class="ColorScheme-Text" d="M 4.960938 2.171875 C 3.3125 2.171875 1.984375 3.5 1.984375 5.148438 C 1.984375 6.453125 2.816406 7.558594 3.980469 7.960938 C 4.828125 6.339844 6.152344 5.015625 7.773438 4.167969 C 7.371094 3.003906 6.265625 2.171875 4.960938 2.171875 Z M 4.960938 2.171875 "/>
     <defs>
  <style id="current-color-scheme" type="text/css">
   .ColorScheme-Text { color:#424242; } .ColorScheme-Highlight { color:#eeeeee; }
  </style>
 </defs>
<path style="fill:currentColor" class="ColorScheme-Text" d="M 18.851562 2.171875 C 17.546875 2.171875 16.445312 3.003906 16.039062 4.167969 C 17.660156 5.015625 18.988281 6.339844 19.832031 7.960938 C 20.996094 7.558594 21.832031 6.453125 21.832031 5.148438 C 21.832031 3.5 20.503906 2.171875 18.851562 2.171875 Z M 18.851562 2.171875 "/>
     <defs>
  <style id="current-color-scheme" type="text/css">
   .ColorScheme-Text { color:#424242; } .ColorScheme-Highlight { color:#eeeeee; }
  </style>
 </defs>
<path style="fill:currentColor" class="ColorScheme-Text" d="M 9.921875 8.621094 C 9.628906 8.609375 9.386719 8.84375 9.386719 9.136719 L 9.386719 15.089844 C 9.386719 15.488281 9.824219 15.738281 10.167969 15.53125 L 15.128906 12.554688 C 15.460938 12.355469 15.460938 11.871094 15.128906 11.671875 L 10.167969 8.695312 C 10.09375 8.652344 10.007812 8.625 9.921875 8.621094 Z M 9.921875 8.621094 "/>
</g>
</svg>
